addons/godot-flexbox/assets/light/AlignItemsStretchRowIcon.svg

<svg data-wf-icon="AlignItemsStretchRowIcon" width="16" height="16" viewBox="0 0 24 24" fill="none" xmlns="http://www.w3.org/2000/svg"><path d="M24 0H0V1.5H24V0Z" fill="#474747"></path><path d="M24 24V22.5H0V24H24Z" fill="#474747"></path><path d="M4.5 3H10.5V21H4.5V3Z" fill="#474747"></path><path d="M12 3H18V21H12V3Z" fill="#474747"></path></svg>

<svg xmlns="http://www.w3.org/2000/svg" width="16" height="16" fill="none" data-wf-icon="AlignItemsStretchRowIcon" viewBox="0 0 24 24"><path fill="#474747" d="M24 0H0v1.5h24V0ZM24 24v-1.5H0V24h24ZM4.5 3h6v18h-6V3ZM12 3h6v18h-6V3Z"/></svg>
